dist/images/joy/communications3.svg

<svg width="127" height="126" viewBox="0 0 127 126" fill="none" xmlns="http://www.w3.org/2000/svg">
<circle cx="63.5" cy="63" r="61.5" stroke="#E2704C" stroke-width="3"/>
<g clip-path="url(#clip0)">
<path d="M63.2909 59.1035C59.8257 52.8397 56.3104 47.5157 56.2754 47.4627C55.9444 46.9627 55.3847 46.6619 54.7851 46.6619C54.1854 46.6619 53.6257 46.9626 53.2947 47.4627C53.2597 47.5157 49.7444 52.8397 46.2792 59.1035C41.5246 67.698 39.1138 73.9421 39.1138 77.6621C39.1138 82.0589 40.7583 86.0241 43.7443 88.8274C46.6105 91.5182 50.5315 93.0001 54.7851 93.0001C59.0385 93.0001 62.9595 91.5182 65.8258 88.8274C68.8118 86.0241 70.4563 82.0589 70.4563 77.6621C70.4563 73.9421 68.0454 67.698 63.2909 59.1035ZM54.7851 89.4258C47.6625 89.4258 42.6879 84.5884 42.6879 77.6621C42.6879 72.0669 50.4037 58.6857 54.7852 51.7458C59.1668 58.6847 66.8821 72.0643 66.8821 77.6621C66.8821 84.5884 61.9075 89.4258 54.7851 89.4258Z" fill="#373737"/>
<path d="M83.5645 39.7234C81.5043 35.9997 79.4776 32.9298 79.3923 32.8009C79.0614 32.3007 78.5017 32 77.9019 32C77.3022 32 76.7426 32.3007 76.4116 32.801C76.3263 32.9298 74.2995 35.9998 72.2395 39.7235C69.3312 44.9806 67.9175 48.6806 67.9175 51.035C67.9175 53.8351 68.9704 56.3658 70.8824 58.1608C72.7109 59.8774 75.2038 60.8227 77.9019 60.8227C80.6001 60.8227 83.093 59.8774 84.9216 58.1608C86.8336 56.3659 87.8865 53.8351 87.8865 51.035C87.8865 48.6805 86.4728 44.9805 83.5645 39.7234ZM77.9019 57.2484C74.1277 57.2484 71.4917 54.6933 71.4917 51.035C71.4917 48.3663 74.9794 41.8454 77.9022 37.1097C80.8249 41.8441 84.3123 48.3637 84.3123 51.035C84.3123 54.6933 81.6763 57.2484 77.9019 57.2484Z" fill="#373737"/>
</g>
<defs>
<clipPath id="clip0">
<rect width="61" height="61" fill="white" transform="translate(33 32)"/>
</clipPath>
</defs>
</svg>

<svg width="127" height="126" fill="none" xmlns="http://www.w3.org/2000/svg"><circle cx="63.5" cy="63" r="61.5" stroke="#E2704C" stroke-width="3"/><g clip-path="url(#clip0)" fill="#373737"><path d="M63.29 59.103a194.705 194.705 0 00-7.015-11.64 1.787 1.787 0 00-2.98 0c-.035.053-3.55 5.377-7.016 11.64-4.754 8.595-7.165 14.84-7.165 18.56 0 4.396 1.644 8.361 4.63 11.164C46.611 91.518 50.532 93 54.785 93c4.254 0 8.175-1.482 11.04-4.173 2.987-2.803 4.631-6.768 4.631-11.165 0-3.72-2.41-9.964-7.165-18.559zm-8.505 30.323c-7.122 0-12.097-4.838-12.097-11.764 0-5.595 7.716-18.976 12.097-25.916 4.382 6.939 12.097 20.318 12.097 25.916 0 6.926-4.975 11.764-12.097 11.764zm28.779-49.703a113.497 113.497 0 00-4.172-6.922 1.787 1.787 0 00-2.98 0c-.086.129-2.113 3.199-4.172 6.922-2.909 5.258-4.322 8.958-4.322 11.312 0 2.8 1.052 5.33 2.964 7.126 1.829 1.716 4.322 2.662 7.02 2.662 2.698 0 5.191-.946 7.02-2.662 1.912-1.795 2.965-4.326 2.965-7.126 0-2.354-1.414-6.054-4.323-11.312zm-5.662 17.525c-3.774 0-6.41-2.555-6.41-6.213 0-2.669 3.487-9.19 6.41-13.925 2.923 4.734 6.41 11.254 6.41 13.925 0 3.658-2.636 6.213-6.41 6.213z"/></g><defs><clipPath id="clip0"><path fill="#fff" transform="translate(33 32)" d="M0 0h61v61H0z"/></clipPath></defs></svg>
